receipt-text-arrow-right.svg

<svg fill="currentColor" viewBox="0 0 24 24"><path d="M19.5 3.5 18 2l-1.5 1.5L15 2l-1.5 1.5L12 2l-1.5 1.5L9 2 7.5 3.5 6 2 4.5 3.5 3 2v20l1.5-1.5L6 22l1.5-1.5L9 22l1.5-1.5L12 22l1.26-1.26c-.17-.56-.26-1.15-.26-1.74 0-.68.12-1.36.34-2H6v-2h8.53A6 6 0 0 1 21 13.34V2zM18 13H6v-2h12zm0-4H6V7h12zm1 13v-2h-4v-2h4v-2l3 3z"/></svg>

<svg  viewBox="0 0 24 24" fill="currentColor"><path  d="M19.5 3.5L18 2L16.5 3.5L15 2L13.5 3.5L12 2L10.5 3.5L9 2L7.5 3.5L6 2L4.5 3.5L3 2V22L4.5 20.5L6 22L7.5 20.5L9 22L10.5 20.5L12 22L13.26 20.74C13.09 20.18 13 19.59 13 19C13 18.32 13.12 17.64 13.34 17H6V15H14.53C15.67 13.73 17.29 13 19 13C19.68 13 20.36 13.12 21 13.34V2L19.5 3.5M18 13H6V11H18V13M18 9H6V7H18V9M19 22V20H15V18H19V16L22 19L19 22Z"/></svg>
